X: 289
T: Miss Husseys Reel
%R: hornpipe, reel
Z: 2014 John Chambers <jc:trillian.mit.edu>
B: Preston "Twenty four Country Dances for the Year 1796" p.125 #1
F: http://www.vwml.org/browse/browse-collections-dance-tune-books/browse-prestons1796# 2014-8-10
M: C|
L: 1/8
K: G
|:\
G>A B>c d>fg>e | d>B A>G A>GE>A |\
G>AB>c d>fg>e | d>BA>B G2G,2 :|
|:\
g>ab>g a>fg>e | d>Bg>B {B}AGE2 |\
g>ab>g a>fg>e | d>B A>F G2G,2 :|
% - - - - - - - - - - - - - - - - - - - - - - - - -
%%begintext align
%% Set & change sides .| back again :|
%% lead down the middle up again :|.
%% Allemande :|:
%%endtext
% - - - - - - - - - - - - - - - - - - - - - - - - -

%%sep 1 1 500
%%sep 1 1 500
